X: 31437
T: Paddy Sean Nancy's
R: reel
M: 4/4
K: Gmajor
|:D3G (3BcB Ac|BG ~G2 AGEG|D3G Bz Bc|1 dBAG E~G3:|2 dBAG EG~G2||
|:Bddg edg z|BddB AGEG|Bddg edgd|1 (3BcB Ac BG~G2:|2 (3BcB Ac BGGE||

